X:379
T: Shanshang wushu chenghuangshan
N: C1881
O: China, Guangdong Shunfeng
S: II, 349, 2)]
R: Shange, Tangkeng shange]
M: 2/4
L: 1/16
K: D
ee | e2e2e2e2 | e2dedBz2
A2d2d2BA | BdA6 | A2A4
AA | A2E2A2^GA | e2dedBz2
A2d2d2BA | dBA6 | A2A6

